X: 051
M: C
L: 1/8
K: D
g | af-fb afdf | Bege bege | af-fb afdf | (B/d/e/f/ g)f Te2(dg) |
    af-fb afdf | Bege bege | afd(f ec)ae | fd-dF TE2D |]


